assets/Icon.svg

<svg xmlns="http://www.w3.org/2000/svg" fill="none" viewBox="0 0 1500 1500">
    <g clip-path="url(#a)">
        <path fill="#29A3D0" d="M0 0h2400v2400H0z"/>
        <path fill="#000" fill-opacity=".8" d="M0 0h2400v2400H0z" style="mix-blend-mode:darken"/>
        <path stroke="#fff" stroke-opacity=".2" stroke-width="8.73786"
              d="M199.533 24.7573v32.0388M83.9461 195.475l22.46639114 26.77440235-26.77662388 22.46825523-22.46639114-26.77440236zM24.3765 406.129l31.9169-2.792"/>
        <circle cx="395.407" cy="86.6505" r="28.3981" stroke="#fff" stroke-opacity=".2" stroke-width="8.73786"/>
        <path stroke="#fff" stroke-opacity=".2" stroke-width="8.73786" d="m635.887 144.876 49.515 32.039"/>
        <circle cx="435.455" cy="300" r="7.28155" stroke="#fff" stroke-opacity=".2" stroke-width="8.73786"/>
        <path stroke="#fff" stroke-opacity=".2" stroke-width="8.73786"
              d="m263.858 476.765-42.006 39.655 3.376-57.668 38.63 18.013Zm19.944 247.977 44.624-37.444M130.171 816.323l23.07423627-3.24287243 8.91789221 63.45410023-23.07423627 3.24287243z"/>
        <circle cx="58.271" cy="1098.06" r="4.36893" stroke="#fff" stroke-opacity=".2" stroke-width="8.73786"/>
        <path stroke="#fff" stroke-opacity=".2" stroke-width="8.73786"
              d="m508.082 555.991 13.85033115 4.5002454-4.50024539 13.85033114-13.85033115-4.50024539zm46.791 173.621v61.165h-61.165M384.305 1002.81l-3.647-12.215 12.743-.082 3.647 12.207-12.743.09Zm278.13-602.571 21.414-37.227 28.687 31.961-21.415 37.226-28.686-31.96Zm326.878-258.977 34.487-57.1267v57.1267h-34.487Zm-32.541 172.693 8.107 57.686m-96.764 172.915-3.317 6.801-4.232-6.273 7.549-.528Zm278.645-33.691c-5.5-15.116-22.22-22.91-37.33-17.408-15.12 5.502-22.91 22.215-17.41 37.331M855.69 726.742l29.452-5.193 19.224 22.91-10.229 28.103-29.452 5.193-19.224-22.91 10.229-28.103ZM713.55 872.67l.896-4.991 3.135 3.986-4.031 1.005Zm-8.573 182.13-17.459 31.04-22.583-27.53 40.042-3.51Zm246.079-111.393 43.669 40.721"/>
        <circle cx="1054.39" cy="1068.93" r="16.0194" stroke="#fff" stroke-opacity=".2" stroke-width="8.73786"/>
        <path fill="#fff" fill-opacity=".2"
              d="m1122.83 744.175-14.56 2.912-1.46 30.583 7.29-1.456-1.46 30.582 14.56-42.233-8.73 1.456 4.36-21.844Z"/>
        <path stroke="#fff" stroke-opacity=".2" stroke-width="8.73786"
              d="M1399.53 24.7573v32.0388M1283.95 195.475l22.46639114 26.77440235-26.77662388 22.46825523-22.46639114-26.77440236zm-59.57 210.654 31.91-2.792m207.57 73.428-42.01 39.655 3.38-57.668 38.63 18.013Zm19.94 247.977 44.63-37.444m-198.26 129.025 23.07423627-3.24287243 8.91789221 63.45410023-23.07423627 3.24287243z"/>
        <circle cx="1258.27" cy="1098.06" r="4.36893" stroke="#fff" stroke-opacity=".2" stroke-width="8.73786"/>
        <path stroke="#fff" stroke-opacity=".2" stroke-width="8.73786"
              d="M199.533 1224.76v32.04M83.9461 1395.48l22.46639114 26.77440235-26.77662388 22.46825523-22.46639114-26.77440236z"/>
        <circle cx="395.407" cy="1286.65" r="28.3981" stroke="#fff" stroke-opacity=".2" stroke-width="8.73786"/>
        <path stroke="#fff" stroke-opacity=".2" stroke-width="8.73786" d="m635.887 1344.88 49.515 32.03"/>
        <circle cx="435.455" cy="1500" r="7.28155" stroke="#fff" stroke-opacity=".2" stroke-width="8.73786"/>
        <path stroke="#fff" stroke-opacity=".2" stroke-width="8.73786"
              d="m989.313 1341.26 34.487-57.12v57.12h-34.487Zm410.217-116.5v32.04m-115.58 138.68 22.46639114 26.77440235-26.77662388 22.46825523-22.46639114-26.77440236z"/>
        <path fill="#359DC4" stroke="#000" stroke-width="32"
              d="M618.282 1072.89h647.438c2.82 0 5.49.52 8.31 2.03 2.96 1.58 5.37 3.99 6.95 6.94 1.5 2.82 2.02 5.49 2.02 8.32v264.71H601v-264.71c0-2.83.516-5.5 2.025-8.32 1.578-2.95 3.99-5.36 6.941-6.94 2.82-1.51 5.494-2.03 8.316-2.03ZM832 987.771H702c-.552 0-1 .448-1 1v79.999c0 .55.448 1 1 1h130c.552 0 1-.45 1-1v-79.999c0-.552-.448-1-1-1Zm350 0h-130c-.55 0-1 .448-1 1v79.999c0 .55.45 1 1 1h130c.55 0 1-.45 1-1v-79.999c0-.552-.45-1-1-1Z"/>
        <path fill="#D56FAC" stroke="#000" stroke-width="32"
              d="M415 987.771H285c-.552 0-1 .448-1 1v79.999c0 .55.448 1 1 1h130c.552 0 1-.45 1-1v-79.999c0-.552-.448-1-1-1Zm-226.718 85.119h322.436c2.822 0 5.496.52 8.316 2.03 2.951 1.58 5.363 3.99 6.941 6.94 1.509 2.82 2.025 5.49 2.025 8.32v264.71H171v-264.71c0-2.83.516-5.5 2.025-8.32 1.578-2.95 3.99-5.36 6.941-6.94 2.82-1.51 5.494-2.03 8.316-2.03Z"/>
        <path fill="#967ADC" stroke="#000" stroke-width="32"
              d="M188.282 660.894h647.436c2.822 0 5.496.517 8.316 2.025 2.951 1.578 5.363 3.99 6.941 6.941 1.509 2.82 2.025 5.494 2.025 8.316v264.718H171V678.176c0-2.822.516-5.496 2.025-8.316 1.578-2.951 3.99-5.363 6.941-6.941 2.82-1.508 5.494-2.025 8.316-2.025Zm213.718-85H272c-.552 0-1 .448-1 1v80c0 .553.448 1 1 1h130c.552 0 1-.447 1-1v-80c0-.552-.448-1-1-1Zm350 0H622c-.552 0-1 .448-1 1v80c0 .553.448 1 1 1h130c.552 0 1-.447 1-1v-80c0-.552-.448-1-1-1Z"/>
        <path fill="#4FC0E9" stroke="#000" stroke-width="32"
              d="M754.305 174.727 1312.76 495.41c2.43 1.398 4.48 3.175 6.14 5.895 1.74 2.847 2.6 6.158 2.46 9.529-.13 3.221-1.05 5.823-2.48 8.299L1184.3 751.386 596.035 413.583l134.578-232.254c1.434-2.475 3.239-4.566 5.974-6.293 2.861-1.807 6.168-2.729 9.516-2.652 3.199.074 5.768.945 8.202 2.343Z"/>
        <path fill="#4FC0E9" stroke="#000" stroke-width="32"
              d="m978.566 209.154-111.967-64.245c-.475-.273-1.088-.103-1.368.381l-40.611 70.03c-.281.483-.122 1.096.353 1.369l111.967 64.245c.476.273 1.089.103 1.369-.381l40.611-70.029c.28-.484.122-1.097-.354-1.37Zm303.114 175-111.97-64.245c-.48-.273-1.09-.103-1.37.381l-40.61 70.03c-.28.483-.12 1.096.35 1.369l111.97 64.245c.47.273 1.09.103 1.37-.381l40.61-70.029c.28-.484.12-1.097-.35-1.37Z"/>
    </g>
    <defs>
        <clipPath id="a">
            <path fill="#fff" d="M0 0h1500v1500H0z"/>
        </clipPath>
    </defs>
</svg>

<svg width="1500" height="1500" viewBox="0 0 1500 1500" fill="none" xmlns="http://www.w3.org/2000/svg">
<g clip-path="url(#clip0_2_316)">
<rect width="2400" height="2400" fill="#29A3D0"/>
<rect width="2400" height="2400" fill="black" fill-opacity="0.8" style="mix-blend-mode:darken"/>
<line x1="199.533" y1="24.7573" x2="199.533" y2="56.7961" stroke="white" stroke-opacity="0.2" stroke-width="8.73786"/>
<rect x="83.9461" y="195.475" width="34.9515" height="34.9544" transform="rotate(50 83.9461 195.475)" stroke="white" stroke-opacity="0.2" stroke-width="8.73786"/>
<line x1="24.3765" y1="406.129" x2="56.2934" y2="403.337" stroke="white" stroke-opacity="0.2" stroke-width="8.73786"/>
<circle cx="395.407" cy="86.6505" r="28.3981" stroke="white" stroke-opacity="0.2" stroke-width="8.73786"/>
<line x1="635.887" y1="144.876" x2="685.402" y2="176.915" stroke="white" stroke-opacity="0.2" stroke-width="8.73786"/>
<circle cx="435.455" cy="300" r="7.28155" stroke="white" stroke-opacity="0.2" stroke-width="8.73786"/>
<path d="M263.858 476.765L221.852 516.42L225.228 458.752L263.858 476.765Z" stroke="white" stroke-opacity="0.2" stroke-width="8.73786"/>
<line x1="283.802" y1="724.742" x2="328.426" y2="687.298" stroke="white" stroke-opacity="0.2" stroke-width="8.73786"/>
<rect x="130.171" y="816.323" width="23.301" height="64.0777" transform="rotate(-8 130.171 816.323)" stroke="white" stroke-opacity="0.2" stroke-width="8.73786"/>
<circle cx="58.271" cy="1098.06" r="4.36893" stroke="white" stroke-opacity="0.2" stroke-width="8.73786"/>
<rect x="508.082" y="555.991" width="14.5631" height="14.5631" transform="rotate(18 508.082 555.991)" stroke="white" stroke-opacity="0.2" stroke-width="8.73786"/>
<path d="M554.873 729.612V790.777H493.708" stroke="white" stroke-opacity="0.2" stroke-width="8.73786"/>
<path d="M384.305 1002.81L380.658 990.595L393.401 990.513L397.048 1002.72L384.305 1002.81Z" stroke="white" stroke-opacity="0.2" stroke-width="8.73786"/>
<path d="M662.435 400.239L683.849 363.012L712.536 394.973L691.121 432.199L662.435 400.239Z" stroke="white" stroke-opacity="0.2" stroke-width="8.73786"/>
<path d="M989.313 141.262L1023.8 84.1353V141.262H989.313Z" stroke="white" stroke-opacity="0.2" stroke-width="8.73786"/>
<line x1="956.772" y1="313.955" x2="964.879" y2="371.641" stroke="white" stroke-opacity="0.2" stroke-width="8.73786"/>
<path d="M868.115 544.556L864.798 551.357L860.566 545.084L868.115 544.556Z" stroke="white" stroke-opacity="0.2" stroke-width="8.73786"/>
<path d="M1146.76 510.865C1141.26 495.749 1124.54 487.955 1109.43 493.457C1094.31 498.959 1086.52 515.672 1092.02 530.788" stroke="white" stroke-opacity="0.2" stroke-width="8.73786"/>
<path d="M855.69 726.742L885.142 721.549L904.366 744.459L894.137 772.562L864.685 777.755L845.461 754.845L855.69 726.742Z" stroke="white" stroke-opacity="0.2" stroke-width="8.73786"/>
<path d="M713.55 872.67L714.446 867.679L717.581 871.665L713.55 872.67Z" stroke="white" stroke-opacity="0.2" stroke-width="8.73786"/>
<path d="M704.977 1054.8L687.518 1085.84L664.935 1058.31L704.977 1054.8Z" stroke="white" stroke-opacity="0.2" stroke-width="8.73786"/>
<line x1="951.056" y1="943.407" x2="994.725" y2="984.128" stroke="white" stroke-opacity="0.2" stroke-width="8.73786"/>
<circle cx="1054.39" cy="1068.93" r="16.0194" stroke="white" stroke-opacity="0.2" stroke-width="8.73786"/>
<path d="M1122.83 744.175L1108.27 747.087L1106.81 777.67L1114.1 776.214L1112.64 806.796L1127.2 764.563L1118.47 766.019L1122.83 744.175Z" fill="white" fill-opacity="0.2"/>
<line x1="1399.53" y1="24.7573" x2="1399.53" y2="56.7961" stroke="white" stroke-opacity="0.2" stroke-width="8.73786"/>
<rect x="1283.95" y="195.475" width="34.9515" height="34.9544" transform="rotate(50 1283.95 195.475)" stroke="white" stroke-opacity="0.2" stroke-width="8.73786"/>
<line x1="1224.38" y1="406.129" x2="1256.29" y2="403.337" stroke="white" stroke-opacity="0.2" stroke-width="8.73786"/>
<path d="M1463.86 476.765L1421.85 516.42L1425.23 458.752L1463.86 476.765Z" stroke="white" stroke-opacity="0.2" stroke-width="8.73786"/>
<line x1="1483.8" y1="724.742" x2="1528.43" y2="687.298" stroke="white" stroke-opacity="0.2" stroke-width="8.73786"/>
<rect x="1330.17" y="816.323" width="23.301" height="64.0777" transform="rotate(-8 1330.17 816.323)" stroke="white" stroke-opacity="0.2" stroke-width="8.73786"/>
<circle cx="1258.27" cy="1098.06" r="4.36893" stroke="white" stroke-opacity="0.2" stroke-width="8.73786"/>
<line x1="199.533" y1="1224.76" x2="199.533" y2="1256.8" stroke="white" stroke-opacity="0.2" stroke-width="8.73786"/>
<rect x="83.9461" y="1395.48" width="34.9515" height="34.9544" transform="rotate(50 83.9461 1395.48)" stroke="white" stroke-opacity="0.2" stroke-width="8.73786"/>
<circle cx="395.407" cy="1286.65" r="28.3981" stroke="white" stroke-opacity="0.2" stroke-width="8.73786"/>
<line x1="635.887" y1="1344.88" x2="685.402" y2="1376.91" stroke="white" stroke-opacity="0.2" stroke-width="8.73786"/>
<circle cx="435.455" cy="1500" r="7.28155" stroke="white" stroke-opacity="0.2" stroke-width="8.73786"/>
<path d="M989.313 1341.26L1023.8 1284.14V1341.26H989.313Z" stroke="white" stroke-opacity="0.2" stroke-width="8.73786"/>
<line x1="1399.53" y1="1224.76" x2="1399.53" y2="1256.8" stroke="white" stroke-opacity="0.2" stroke-width="8.73786"/>
<rect x="1283.95" y="1395.48" width="34.9515" height="34.9544" transform="rotate(50 1283.95 1395.48)" stroke="white" stroke-opacity="0.2" stroke-width="8.73786"/>
<path d="M618.282 1072.89H1265.72C1268.54 1072.89 1271.21 1073.41 1274.03 1074.92C1276.99 1076.5 1279.4 1078.91 1280.98 1081.86C1282.48 1084.68 1283 1087.35 1283 1090.18V1354.89H601V1090.18C601 1087.35 601.516 1084.68 603.025 1081.86C604.603 1078.91 607.015 1076.5 609.966 1074.92C612.786 1073.41 615.46 1072.89 618.282 1072.89Z" fill="#359DC4" stroke="black" stroke-width="32"/>
<path d="M832 987.771H702C701.448 987.771 701 988.219 701 988.771V1068.77C701 1069.32 701.448 1069.77 702 1069.77H832C832.552 1069.77 833 1069.32 833 1068.77V988.771C833 988.219 832.552 987.771 832 987.771Z" fill="#359DC4" stroke="black" stroke-width="32"/>
<path d="M1182 987.771H1052C1051.45 987.771 1051 988.219 1051 988.771V1068.77C1051 1069.32 1051.45 1069.77 1052 1069.77H1182C1182.55 1069.77 1183 1069.32 1183 1068.77V988.771C1183 988.219 1182.55 987.771 1182 987.771Z" fill="#359DC4" stroke="black" stroke-width="32"/>
<path d="M415 987.771H285C284.448 987.771 284 988.219 284 988.771V1068.77C284 1069.32 284.448 1069.77 285 1069.77H415C415.552 1069.77 416 1069.32 416 1068.77V988.771C416 988.219 415.552 987.771 415 987.771Z" fill="#D56FAC" stroke="black" stroke-width="32"/>
<path d="M188.282 1072.89H510.718C513.54 1072.89 516.214 1073.41 519.034 1074.92C521.985 1076.5 524.397 1078.91 525.975 1081.86C527.484 1084.68 528 1087.35 528 1090.18V1354.89H171V1090.18C171 1087.35 171.516 1084.68 173.025 1081.86C174.603 1078.91 177.015 1076.5 179.966 1074.92C182.786 1073.41 185.46 1072.89 188.282 1072.89Z" fill="#D56FAC" stroke="black" stroke-width="32"/>
<path d="M188.282 660.894H835.718C838.54 660.894 841.214 661.411 844.034 662.919C846.985 664.497 849.397 666.909 850.975 669.86C852.484 672.68 853 675.354 853 678.176V942.894H171V678.176C171 675.354 171.516 672.68 173.025 669.86C174.603 666.909 177.015 664.497 179.966 662.919C182.786 661.411 185.46 660.894 188.282 660.894Z" fill="#967ADC" stroke="black" stroke-width="32"/>
<path d="M402 575.894H272C271.448 575.894 271 576.342 271 576.894V656.894C271 657.447 271.448 657.894 272 657.894H402C402.552 657.894 403 657.447 403 656.894V576.894C403 576.342 402.552 575.894 402 575.894Z" fill="#967ADC" stroke="black" stroke-width="32"/>
<path d="M752 575.894H622C621.448 575.894 621 576.342 621 576.894V656.894C621 657.447 621.448 657.894 622 657.894H752C752.552 657.894 753 657.447 753 656.894V576.894C753 576.342 752.552 575.894 752 575.894Z" fill="#967ADC" stroke="black" stroke-width="32"/>
<path d="M754.305 174.727L1312.76 495.41C1315.19 496.808 1317.24 498.585 1318.9 501.305C1320.64 504.152 1321.5 507.463 1321.36 510.834C1321.23 514.055 1320.31 516.657 1318.88 519.133L1184.3 751.386L596.035 413.583L730.613 181.329C732.047 178.854 733.852 176.763 736.587 175.036C739.448 173.229 742.755 172.307 746.103 172.384C749.302 172.458 751.871 173.329 754.305 174.727Z" fill="#4FC0E9" stroke="black" stroke-width="32"/>
<path d="M978.566 209.154L866.599 144.909C866.124 144.636 865.511 144.806 865.231 145.29L824.62 215.32C824.339 215.803 824.498 216.416 824.973 216.689L936.94 280.934C937.416 281.207 938.029 281.037 938.309 280.553L978.92 210.524C979.2 210.04 979.042 209.427 978.566 209.154Z" fill="#4FC0E9" stroke="black" stroke-width="32"/>
<path d="M1281.68 384.154L1169.71 319.909C1169.23 319.636 1168.62 319.806 1168.34 320.29L1127.73 390.32C1127.45 390.803 1127.61 391.416 1128.08 391.689L1240.05 455.934C1240.52 456.207 1241.14 456.037 1241.42 455.553L1282.03 385.524C1282.31 385.04 1282.15 384.427 1281.68 384.154Z" fill="#4FC0E9" stroke="black" stroke-width="32"/>
</g>
<defs>
<clipPath id="clip0_2_316">
<rect width="1500" height="1500" fill="white"/>
</clipPath>
</defs>
</svg>
